X:1
T:John Prine
M:4/4
L:1/8
Q:1/4=80
K:G
D2 D2 D2 E2 | G4 z4 | G2 G2 A2 B2 | A4 G2 z2 |
D2 D2 G2 G2 | A4 B2 A2 | G4 E2 D2 | D6 z2 |
B,2 D2 D2 E2 | G4 z4 | G2 A2 B2 A2 | G4 E2 D2 |
E2 E2 G2 A2 | B4 A2 G2 | G2 E2 D2 E2 | G6 z2 |
